X: 20920
T: Jota De Desiderio
R: mazurka
M: 3/4
K: Gmajor
GB GB|:de dc Bc|d2 GB GB|
de dc Bc|A2 FA FA|cd cB AB|
A2 FA FA|de dc BA|1 B2 GB GB:|2 G6||
GA Bc|:d2 ef g2|g2 a2 g2|
fg fe d2|d2 f2 e2|de dc B2|
B2 d2 c2|Bc BA G2|1 G2 GA Bc:|2 B2 d2 g2||
|:g2 fe fg|f2 ed ef|ef ed c2|
c2 de fg|1 f2 ed ef|e2 dc de|de dc B2|
B2 d2 g2:|2 ab ag fe|de dc BA|Bc BA GF|G6||

